public/images/well/outline/7.svg

<svg width="100%" height="100%" preserveAspectRatio="none" viewBox="0 0 180 180" fill="none" xmlns="http://www.w3.org/2000/svg">
<path fill-rule="evenodd" clip-rule="evenodd" d="M180 0H0V180H180V0ZM89.9963 155.784C53.7235 155.784 24.2145 126.274 24.2145 89.9996V24.2148H155.778V89.9996C155.778 126.274 126.269 155.784 89.9963 155.784Z" fill="white"/>
<path d="M179.992 0H0V90C0 138.6 38.7184 178.321 86.9288 179.943C87.9458 179.976 88.9709 180 89.996 180C91.021 180 92.0784 179.976 93.1196 179.943C140.531 178.321 178.757 139.843 179.968 92.3247C179.984 91.5498 180 90.783 180 90.0081V0.00806731L179.992 0ZM155.778 90C155.778 126.274 126.269 155.785 89.996 155.785C53.7232 155.785 24.2142 126.274 24.2142 90V24.2152H155.778V90Z" fill="current"/>
<mask id="mask0_3125_5746" style="mask-type:luminance" maskUnits="userSpaceOnUse" x="0" y="0" width="180" height="180">
<path d="M0 0H179.992V90C179.992 139.625 139.619 180 89.996 180C40.3731 180 0 139.625 0 90V0ZM155.778 24.2152H24.2142V90C24.2142 126.274 53.7231 155.785 89.996 155.785C126.269 155.785 155.778 126.274 155.778 90V24.2152Z" fill="current"/>
</mask>
<g mask="url(#mask0_3125_5746)">
<path opacity='0.5' d="M89.9951 78.4658V215.589" stroke="white" stroke-miterlimit="10"/>
<path opacity='0.5' d="M89.9951 78.4658L101.941 215.064" stroke="white" stroke-miterlimit="10"/>
<path opacity='0.5' d="M89.9951 78.4658L113.806 213.506" stroke="white" stroke-miterlimit="10"/>
<path opacity='0.5' d="M89.9951 78.4658L125.485 210.915" stroke="white" stroke-miterlimit="10"/>
<path opacity='0.5' d="M89.9951 78.4658L136.89 207.315" stroke="white" stroke-miterlimit="10"/>
<path opacity='0.5' d="M89.9951 78.4658L147.94 202.738" stroke="white" stroke-miterlimit="10"/>
<path opacity='0.5' d="M89.9951 78.4658L158.553 197.217" stroke="white" stroke-miterlimit="10"/>
<path opacity='0.5' d="M89.9951 78.4658L168.643 190.792" stroke="white" stroke-miterlimit="10"/>
<path opacity='0.5' d="M89.9951 78.4658L178.127 183.512" stroke="white" stroke-miterlimit="10"/>
<path opacity='0.5' d="M89.9951 78.4658L186.949 175.424" stroke="white" stroke-miterlimit="10"/>
<path opacity='0.5' d="M89.9951 78.4658L195.028 166.609" stroke="white" stroke-miterlimit="10"/>
<path opacity='0.5' d="M89.9951 78.4658L202.308 157.117" stroke="white" stroke-miterlimit="10"/>
<path opacity='0.5' d="M89.9951 78.4658L208.741 147.027" stroke="white" stroke-miterlimit="10"/>
<path opacity='0.5' d="M89.9951 78.4658L214.262 136.421" stroke="white" stroke-miterlimit="10"/>
<path opacity='0.5' d="M89.9951 78.4658L218.839 125.371" stroke="white" stroke-miterlimit="10"/>
<path opacity='0.5' d="M89.9951 78.4658L222.438 113.957" stroke="white" stroke-miterlimit="10"/>
<path opacity='0.5' d="M89.9951 78.4658L225.021 102.277" stroke="white" stroke-miterlimit="10"/>
<path opacity='0.5' d="M89.9951 78.4658L226.587 90.4201" stroke="white" stroke-miterlimit="10"/>
<path opacity='0.5' d="M89.9951 78.4658H227.104" stroke="white" stroke-miterlimit="10"/>
<path opacity='0.5' d="M89.9951 78.4657L226.587 66.5195" stroke="white" stroke-miterlimit="10"/>
<path opacity='0.5' d="M89.9951 78.4657L225.021 54.6621" stroke="white" stroke-miterlimit="10"/>
<path opacity='0.5' d="M89.9951 78.4658L222.438 42.9824" stroke="white" stroke-miterlimit="10"/>
<path opacity='0.5' d="M89.9951 78.4652L218.839 31.5684" stroke="white" stroke-miterlimit="10"/>
<path opacity='0.5' d="M89.9951 78.4656L214.262 20.5186" stroke="white" stroke-miterlimit="10"/>
<path opacity='0.5' d="M89.9951 78.4655L208.741 9.91211" stroke="white" stroke-miterlimit="10"/>
<path opacity='0.5' d="M89.9951 78.4653L202.308 -0.177734" stroke="white" stroke-miterlimit="10"/>
<path opacity='0.5' d="M89.9951 78.4655L195.028 -9.66992" stroke="white" stroke-miterlimit="10"/>
<path opacity='0.5' d="M89.9951 78.4654L186.949 -18.4844" stroke="white" stroke-miterlimit="10"/>
<path opacity='0.5' d="M89.9951 78.4654L178.127 -26.5723" stroke="white" stroke-miterlimit="10"/>
<path opacity='0.5' d="M89.9951 78.4649L168.643 -33.8535" stroke="white" stroke-miterlimit="10"/>
<path opacity='0.5' d="M89.9951 78.4652L158.553 -40.2783" stroke="white" stroke-miterlimit="10"/>
<path opacity='0.5' d="M89.9951 78.4657L147.94 -45.7988" stroke="white" stroke-miterlimit="10"/>
<path opacity='0.5' d="M89.9951 78.4655L136.89 -50.3838" stroke="white" stroke-miterlimit="10"/>
<path opacity='0.5' d="M89.9951 78.4657L125.485 -53.9756" stroke="white" stroke-miterlimit="10"/>
<path opacity='0.5' d="M89.9951 78.4659L113.806 -56.5664" stroke="white" stroke-miterlimit="10"/>
<path opacity='0.5' d="M89.9951 78.4661L101.941 -58.124" stroke="white" stroke-miterlimit="10"/>
<path opacity='0.5' d="M89.9951 78.4654V-58.6494" stroke="white" stroke-miterlimit="10"/>
<path opacity='0.5' d="M89.9963 78.4661L78.042 -58.124" stroke="white" stroke-miterlimit="10"/>
<path opacity='0.5' d="M89.9956 78.4659L66.1851 -56.5664" stroke="white" stroke-miterlimit="10"/>
<path opacity='0.5' d="M89.9954 78.4657L54.5055 -53.9756" stroke="white" stroke-miterlimit="10"/>
<path opacity='0.5' d="M89.9957 78.4655L43.101 -50.3838" stroke="white" stroke-miterlimit="10"/>
<path opacity='0.5' d="M89.9949 78.4657L32.0504 -45.7988" stroke="white" stroke-miterlimit="10"/>
<path opacity='0.5' d="M89.9957 78.4652L21.4373 -40.2783" stroke="white" stroke-miterlimit="10"/>
<path opacity='0.5' d="M89.996 78.4649L11.3484 -33.8535" stroke="white" stroke-miterlimit="10"/>
<path opacity='0.5' d="M89.9957 78.4654L1.86414 -26.5723" stroke="white" stroke-miterlimit="10"/>
<path opacity='0.5' d="M89.9954 78.4654L-6.95807 -18.4844" stroke="white" stroke-miterlimit="10"/>
<path opacity='0.5' d="M89.9952 78.4655L-15.0377 -9.66992" stroke="white" stroke-miterlimit="10"/>
<path opacity='0.5' d="M89.9953 78.4653L-22.3181 -0.177734" stroke="white" stroke-miterlimit="10"/>
<path opacity='0.5' d="M89.9953 78.4655L-28.751 9.91211" stroke="white" stroke-miterlimit="10"/>
<path opacity='0.5' d="M89.9952 78.4656L-34.272 20.5186" stroke="white" stroke-miterlimit="10"/>
<path opacity='0.5' d="M89.9958 78.4652L-38.8478 31.5684" stroke="white" stroke-miterlimit="10"/>
<path opacity='0.5' d="M89.9956 78.4658L-42.4478 42.9824" stroke="white" stroke-miterlimit="10"/>
<path opacity='0.5' d="M89.9954 78.4657L-45.0309 54.6621" stroke="white" stroke-miterlimit="10"/>
<path opacity='0.5' d="M89.9957 78.4657L-46.5963 66.5195" stroke="white" stroke-miterlimit="10"/>
<path opacity='0.5' d="M89.9954 78.4658H-47.1213" stroke="white" stroke-miterlimit="10"/>
<path opacity='0.5' d="M89.9957 78.4658L-46.5963 90.4201" stroke="white" stroke-miterlimit="10"/>
<path opacity='0.5' d="M89.9954 78.4658L-45.0309 102.277" stroke="white" stroke-miterlimit="10"/>
<path opacity='0.5' d="M89.9956 78.4658L-42.4478 113.957" stroke="white" stroke-miterlimit="10"/>
<path opacity='0.5' d="M89.9958 78.4658L-38.8478 125.371" stroke="white" stroke-miterlimit="10"/>
<path opacity='0.5' d="M89.9952 78.4658L-34.272 136.421" stroke="white" stroke-miterlimit="10"/>
<path opacity='0.5' d="M89.9953 78.4658L-28.751 147.027" stroke="white" stroke-miterlimit="10"/>
<path opacity='0.5' d="M89.9953 78.4658L-22.3181 157.117" stroke="white" stroke-miterlimit="10"/>
<path opacity='0.5' d="M89.9952 78.4658L-15.0377 166.609" stroke="white" stroke-miterlimit="10"/>
<path opacity='0.5' d="M89.9954 78.4658L-6.95807 175.424" stroke="white" stroke-miterlimit="10"/>
<path opacity='0.5' d="M89.9957 78.4658L1.86414 183.512" stroke="white" stroke-miterlimit="10"/>
<path opacity='0.5' d="M89.996 78.4658L11.3484 190.792" stroke="white" stroke-miterlimit="10"/>
<path opacity='0.5' d="M89.9957 78.4658L21.4373 197.217" stroke="white" stroke-miterlimit="10"/>
<path opacity='0.5' d="M89.9949 78.4658L32.0504 202.738" stroke="white" stroke-miterlimit="10"/>
<path opacity='0.5' d="M89.9957 78.4658L43.101 207.315" stroke="white" stroke-miterlimit="10"/>
<path opacity='0.5' d="M89.9954 78.4658L54.5055 210.915" stroke="white" stroke-miterlimit="10"/>
<path opacity='0.5' d="M89.9956 78.4658L66.1851 213.506" stroke="white" stroke-miterlimit="10"/>
<path opacity='0.5' d="M89.9963 78.4658L78.042 215.064" stroke="white" stroke-miterlimit="10"/>
</g>
</svg>

<svg preserveAspectRatio="none" viewBox="0 0 180 180" fill="none" xmlns="http://www.w3.org/2000/svg"><path fill-rule="evenodd" clip-rule="evenodd" d="M180 0H0v180h180V0ZM89.996 155.784c-36.272 0-65.781-29.51-65.781-65.784V24.215h131.563V90c0 36.274-29.509 65.784-65.782 65.784Z" fill="#fff"/><path d="M179.992 0H0v90c0 48.6 38.718 88.321 86.929 89.943a94.65 94.65 0 0 0 3.067.057 99.5 99.5 0 0 0 3.124-.057c47.411-1.622 85.637-40.1 86.848-87.618.016-.775.032-1.542.032-2.317v-90L179.992 0Zm-24.214 90c0 36.274-29.509 65.785-65.782 65.785-36.273 0-65.782-29.511-65.782-65.785V24.215h131.564V90Z" fill="current"/><mask id="a" style="mask-type:luminance" maskUnits="userSpaceOnUse" x="0" y="0" width="180" height="180"><path d="M0 0h179.992v90c0 49.625-40.373 90-89.996 90S0 139.625 0 90V0Zm155.778 24.215H24.214V90c0 36.274 29.51 65.785 65.782 65.785 36.273 0 65.782-29.511 65.782-65.785V24.215Z" fill="current"/></mask><g mask="url(#a)" stroke="#fff" stroke-miterlimit="10"><path opacity=".5" d="M89.995 78.466v137.123M89.995 78.466l11.946 136.598M89.995 78.466l23.811 135.04M89.995 78.466l35.49 132.449M89.995 78.466l46.895 128.849M89.995 78.466l57.945 124.272M89.995 78.466l68.558 118.751M89.995 78.466l78.648 112.326M89.995 78.466l88.132 105.046M89.995 78.466l96.954 96.958M89.995 78.466l105.033 88.143M89.995 78.466l112.313 78.651M89.995 78.466l118.746 68.561M89.995 78.466l124.267 57.955M89.995 78.466 218.84 125.37M89.995 78.466l132.443 35.491M89.995 78.466l135.026 23.811M89.995 78.466 226.587 90.42M89.995 78.466h137.109M89.995 78.466l136.592-11.947M89.995 78.466l135.026-23.804M89.995 78.466l132.443-35.484M89.995 78.465 218.84 31.568M89.995 78.466l124.267-57.947M89.995 78.466 208.741 9.912M89.995 78.465 202.308-.178M89.995 78.466 195.028-9.67M89.995 78.465l96.954-96.95M89.995 78.465l88.132-105.037M89.995 78.465l78.648-112.319M89.995 78.465l68.558-118.743M89.995 78.466 147.94-45.8M89.995 78.466l46.895-128.85M89.995 78.466l35.49-132.442M89.995 78.466l23.811-135.032M89.995 78.466l11.946-136.59M89.995 78.465V-58.649M89.996 78.466 78.042-58.124M89.996 78.466 66.186-56.566M89.995 78.466 54.505-53.976M89.996 78.466 43.1-50.384M89.995 78.466 32.05-45.8M89.996 78.465 21.437-40.278M89.996 78.465 11.348-33.854M89.996 78.465 1.864-26.572M89.995 78.465l-96.953-96.95M89.995 78.466-15.038-9.67M89.995 78.465-22.318-.178M89.995 78.466-28.75 9.912M89.995 78.466-34.272 20.519M89.996 78.465-38.848 31.568M89.996 78.466-42.448 42.982M89.995 78.466-45.03 54.662M89.996 78.466-46.596 66.519M89.995 78.466H-47.12M89.996 78.466-46.596 90.42M89.995 78.466-45.03 102.277M89.996 78.466l-132.444 35.491M89.996 78.466-38.848 125.37M89.995 78.466-34.272 136.42M89.995 78.466-28.75 147.027M89.995 78.466l-112.313 78.651M89.995 78.466l-105.033 88.143M89.995 78.466l-96.953 96.958M89.996 78.466 1.864 183.512M89.996 78.466 11.348 190.792M89.996 78.466 21.437 197.217M89.995 78.466 32.05 202.738M89.996 78.466 43.1 207.315M89.995 78.466l-35.49 132.449M89.996 78.466l-23.81 135.04M89.996 78.466 78.042 215.064"/></g></svg>
